src/img/HomePage/Crystals/UpRight3.svg

<?xml version="1.0" encoding="UTF-8"?> <svg xmlns="http://www.w3.org/2000/svg" width="184" height="167" viewBox="0 0 184 167" fill="none"> <path d="M10.7322 79.4605C9.79961 81.7693 2.21964 84.3926 0.486254 83.0055C0.0448407 82.6523 0.777591 81.7508 2.11523 81.0006C22.6837 69.4819 52.1953 48.5737 65.6141 36.0127C73.0927 29.0131 73.2864 28.9412 89.7207 26.9453C98.8332 25.8396 114.248 22.7669 123.977 20.1163C133.704 17.4668 142.305 15.4161 143.086 15.5573C143.867 15.7005 143.66 18.5422 142.625 21.8737C141.591 25.2052 140.925 28.5272 141.147 29.2567C141.368 29.9861 133.429 36.1084 123.502 42.8599C105.888 54.8426 97.1493 62.0536 83.8546 75.5817L77.3183 82.233L68.9946 80.4725C55.3755 77.592 33.7061 76.8429 21.9036 78.8436C15.8284 79.8748 11.3936 80.0467 12.0494 79.2272C15.4544 74.9722 50.9387 74.7636 70.931 78.8819C77.0117 80.1331 77.6819 79.8981 81.455 75.1831C87.5365 67.5835 102.625 55.0861 121.103 42.3428C139.367 29.7472 139.792 29.3901 137.52 28.5532C135.513 27.8129 116.391 39.7445 103.927 49.5133L94.3798 56.9977L101.902 48.838C106.157 44.2229 112.166 39.2766 115.737 37.4491C120.136 35.1976 122.844 32.7862 124.682 29.4832C126.485 26.245 128.452 24.461 130.906 23.8389C132.879 23.3385 135.541 21.6548 136.819 20.0973C138.937 17.5193 138.539 17.4543 132.363 19.3673C113.41 25.2405 91.0488 29.7814 80.3852 29.9219C75.4691 29.9865 73.7057 31.0443 65.4417 38.8788C60.2878 43.7649 48.4315 52.9936 39.094 59.3867C29.7564 65.7798 21.3715 71.6911 20.4619 72.523C19.5524 73.3548 17.2133 74.7044 15.2638 75.5246C13.3152 76.3436 11.276 78.1147 10.7322 79.4605Z" fill="#FA007A"></path> <path d="M37.5028 71.4133C34.0079 72.0479 28.5027 73.0022 25.2672 73.5324C21.9431 74.0788 20.7029 73.9087 22.4156 73.1411C24.0813 72.3944 29.8285 71.0383 35.1873 70.1276C43.4416 68.7264 44.9686 68.9067 45.1753 71.3086C45.3406 73.2142 45.1642 73.5078 44.639 72.2008C44.1719 71.0387 41.3002 70.722 37.5028 71.4133Z" fill="#FA007A"></path> <path d="M62.2221 73.8014C56.2907 73.2141 51.0866 72.4526 50.6567 72.1086C49.6194 71.2786 57.1985 71.4961 64.9066 72.5163C75.5843 73.9317 73.519 74.9202 62.2221 73.8014Z" fill="#FA007A"></path> <path d="M90.837 58.9797C94.9233 56.2831 85.514 65.7779 79.3935 70.5276C76.37 72.8742 76.923 72.0178 81.3668 67.471C84.7612 63.9995 89.0219 60.1777 90.837 58.9797Z" fill="#FA007A"></path> <path d="M158.445 8.71015C156.811 8.8925 154.907 8.07158 154.215 6.88817C153.521 5.70384 153.81 3.66605 154.856 2.35794C157.496 -0.94055 161.75 0.717077 161.565 4.96984C161.44 7.86435 160.967 8.43134 158.445 8.71015Z" fill="#FA007A"></path> <path d="M180.058 20.4776C178.926 21.8929 177.392 22.2825 176.324 21.4276C175.25 20.568 175.289 19.3139 176.421 18.3535C179.295 15.9101 182.306 17.669 180.058 20.4776Z" fill="#FA007A"></path> <path d="M182.94 24.8311C182.284 24.3064 181.679 23.2551 181.596 22.4945C181.51 21.7342 181.925 21.0582 182.514 20.9928C183.103 20.9274 183.708 21.9787 183.858 23.3294C184.023 24.817 183.661 25.4085 182.94 24.8311Z" fill="#FA007A"></path> <path d="M101.108 153.421C102.611 166.97 88.6856 171.149 85.5286 158.096C84.6872 154.621 89.7979 149.25 94.4371 148.735C99.4809 148.176 100.614 148.971 101.108 153.421Z" fill="#FA007A"></path> </svg>

<svg xmlns="http://www.w3.org/2000/svg" width="184" height="167" fill="none"><path d="M10.732 79.46C9.8 81.77 2.22 84.393.486 83.007.045 82.651.778 81.75 2.116 81c20.568-11.52 50.08-32.427 63.498-44.988 7.479-7 7.672-7.072 24.107-9.068 9.112-1.105 24.527-4.178 34.256-6.829 9.727-2.65 18.328-4.7 19.109-4.559.781.143.574 2.985-.461 6.317-1.034 3.331-1.7 6.653-1.478 7.383.221.73-7.718 6.851-17.645 13.603-17.614 11.983-26.353 19.194-39.647 32.722l-6.537 6.651-8.323-1.76c-13.62-2.881-35.289-3.63-47.091-1.63-6.076 1.032-10.51 1.204-9.855.384 3.405-4.255 38.89-4.463 58.882-.345 6.08 1.251 6.75 1.016 10.524-3.699 6.082-7.6 21.17-20.097 39.648-32.84 18.264-12.596 18.689-12.953 16.417-13.79-2.007-.74-21.129 11.192-33.593 20.96l-9.547 7.485 7.522-8.16c4.255-4.615 10.264-9.561 13.835-11.389 4.399-2.251 7.107-4.663 8.945-7.966 1.803-3.238 3.77-5.022 6.224-5.644 1.973-.5 4.635-2.184 5.913-3.742 2.118-2.578 1.72-2.643-4.456-.73-18.953 5.873-41.314 10.414-51.978 10.555-4.916.064-6.68 1.122-14.943 8.957-5.154 4.886-17.01 14.115-26.348 20.508-9.338 6.393-17.723 12.304-18.632 13.136-.91.832-3.249 2.181-5.198 3.002-1.949.819-3.988 2.59-4.532 3.935Z" fill="#FA007A"/><path d="M37.503 71.413c-3.495.635-9 1.59-12.236 2.12-3.324.546-4.564.376-2.851-.392 1.665-.747 7.412-2.103 12.771-3.013 8.255-1.402 9.782-1.221 9.988 1.18.166 1.906-.01 2.2-.536.893-.467-1.162-3.339-1.479-7.136-.788ZM62.222 73.801c-5.931-.587-11.135-1.348-11.565-1.692-1.038-.83 6.542-.613 14.25.407 10.677 1.416 8.612 2.404-2.685 1.285ZM90.837 58.98c4.086-2.697-5.323 6.798-11.444 11.548-3.023 2.346-2.47 1.49 1.974-3.057 3.394-3.472 7.655-7.293 9.47-8.491ZM158.445 8.71c-1.634.182-3.538-.638-4.23-1.822-.694-1.184-.405-3.222.641-4.53 2.64-3.299 6.894-1.64 6.709 2.612-.125 2.894-.598 3.461-3.12 3.74ZM180.058 20.478c-1.132 1.415-2.666 1.804-3.734.95-1.074-.86-1.035-2.114.097-3.075 2.874-2.443 5.885-.684 3.637 2.125ZM182.94 24.831c-.656-.525-1.261-1.576-1.344-2.337-.086-.76.329-1.436.918-1.501.589-.066 1.194.986 1.344 2.336.165 1.488-.197 2.08-.918 1.502ZM101.108 153.421c1.503 13.549-12.422 17.728-15.58 4.675-.84-3.475 4.27-8.846 8.91-9.361 5.043-.559 6.176.236 6.67 4.686Z" fill="#FA007A"/></svg>
